public/avatar/hat/9.svg

<svg xmlns:xlink="http://www.w3.org/1999/xlink" height="92.9" width="100.7" xmlns="http://www.w3.org/2000/svg"><use height="29.3" transform="translate(17.25 36.55)" width="42.75" xlink:href="#a"/><defs><g id="a"><path d="M-14.8 15.25q-2.7-.1-3.3-2.15-.25-.95.2-1.7l-1.4-.85-1.15-1.3q-1.05-1.85.4-3.25l-.45-.95q-.3-.8-.2-1.6.3-1.8 1.9-2.05l-.85-1.5q-.45-.75-.1-1.8.45-1.25 1.75-1.55v-.15q-.4-1.35.45-2.35l2.6-.35v-.8q.2-2.8 2.9-2.25 1.5-2.45 4.1-1.55.7-1.5 2.25-1.7 1.25-.15 2.15.85l.8-.45q2.3-1.35 3.7.85 2.2-1.9 4.45-.45l.45.95 1.5-.6 1.15-.1q1.5.45 2.2 1.7l1.6-.45q.9-.15 1.55.7 1 1.35.75 3l1.4-.15q.9.1 1.2.95.45 1.15.1 2.45l-.35.35q1.15-.2 2.2.4.8.5.9 1.4.15 1.45-.75 2.7l-.15.05.05.05 1.05 1q.75.65.55 1.5-.45 1.9-2.1 3.05l.6.55.55.9q.15.35-.05.7-.6 1.2-1.85 1.65 1.15 2.4-1.85 2.75-.05 1.5-1.5 1.75l-.25.65q-.55-3.15-1.9-5.8Q10.4 6.35 7.1 3.7 4.35 1.45 1 1.1l-3.6.4q-1.65.35-3.1 1.15-1.6.85-2.85 2.1Q-13 9.2-14.8 15.25" fill="#f93" fill-rule="evenodd" transform="translate(21.4 13.2)"/><path d="M14.6 15.45q1.45-.25 1.5-1.75 3-.35 1.85-2.75 1.25-.45 1.85-1.65.2-.35.05-.7l-.55-.9-.6-.55Q20.35 6 20.8 4.1q.2-.85-.55-1.5l-1.05-1-.05-.05.15-.05q.9-1.25.75-2.7-.1-.9-.9-1.4-1.05-.6-2.2-.4l.35-.35q.35-1.3-.1-2.45-.3-.85-1.2-.95l-1.4.15q.25-1.65-.75-3-.65-.85-1.55-.7l-1.6.45q-.7-1.25-2.2-1.7l-1.15.1-1.5.6-.45-.95q-2.25-1.45-4.45.45-1.4-2.2-3.7-.85l-.8.45q-.9-1-2.15-.85-1.55.2-2.25 1.7-2.6-.9-4.1 1.55-2.7-.55-2.9 2.25v.8l-2.6.35q-.85 1-.45 2.35v.15q-1.3.3-1.75 1.55-.35 1.05.1 1.8l.85 1.5q-1.6.25-1.9 2.05-.1.8.2 1.6l.45.95q-1.45 1.4-.4 3.25l1.15 1.3 1.4.85q-.45.75-.2 1.7.6 2.05 3.3 2.15" fill="none" stroke="#600" stroke-linecap="round" stroke-linejoin="round" transform="translate(21.4 13.2)"/></g></defs></svg>

<?xml version="1.0" encoding="UTF-8" standalone="no"?>
<svg xmlns:xlink="http://www.w3.org/1999/xlink" height="92.9px" width="100.7px" xmlns="http://www.w3.org/2000/svg">
  <g transform="matrix(1.0, 0.0, 0.0, 1.0, 38.65, 49.75)">
    <use height="29.3" transform="matrix(1.0, 0.0, 0.0, 1.0, -21.4, -13.2)" width="42.75" xlink:href="#shape0"/>
  </g>
  <defs>
    <g id="shape0" transform="matrix(1.0, 0.0, 0.0, 1.0, 21.4, 13.2)">
      <path d="M-14.8 15.25 Q-17.5 15.15 -18.1 13.1 -18.35 12.15 -17.9 11.4 L-19.3 10.55 -20.45 9.25 Q-21.5 7.4 -20.05 6.0 L-20.5 5.05 Q-20.8 4.25 -20.7 3.45 -20.4 1.65 -18.8 1.4 L-19.65 -0.1 Q-20.1 -0.85 -19.75 -1.9 -19.3 -3.15 -18.0 -3.45 L-18.0 -3.6 Q-18.4 -4.95 -17.55 -5.95 L-14.95 -6.3 -14.95 -7.1 Q-14.75 -9.9 -12.05 -9.35 -10.55 -11.8 -7.95 -10.9 -7.25 -12.4 -5.7 -12.6 -4.45 -12.75 -3.55 -11.75 L-2.75 -12.2 Q-0.45 -13.55 0.95 -11.35 3.15 -13.25 5.4 -11.8 L5.85 -10.85 7.35 -11.45 8.5 -11.55 Q10.0 -11.1 10.7 -9.85 L12.3 -10.3 Q13.2 -10.45 13.85 -9.6 14.85 -8.25 14.6 -6.6 L16.0 -6.75 Q16.9 -6.65 17.2 -5.8 17.65 -4.65 17.3 -3.35 L16.95 -3.0 Q18.1 -3.2 19.15 -2.6 19.95 -2.1 20.05 -1.2 20.2 0.25 19.3 1.5 L19.15 1.55 19.2 1.6 20.25 2.6 Q21.0 3.25 20.8 4.1 20.35 6.0 18.7 7.15 L19.3 7.7 19.85 8.6 Q20.0 8.95 19.8 9.3 19.2 10.5 17.95 10.95 19.1 13.35 16.1 13.7 16.05 15.2 14.6 15.45 L14.35 16.1 Q13.8 12.95 12.45 10.3 10.4 6.35 7.1 3.7 4.35 1.45 1.0 1.1 L-2.6 1.5 Q-4.25 1.85 -5.7 2.65 -7.3 3.5 -8.55 4.75 -13.0 9.2 -14.8 15.25" fill="#ff9933" fill-rule="evenodd" stroke="none"/>
      <path d="M14.6 15.45 Q16.05 15.2 16.1 13.7 19.1 13.35 17.95 10.95 19.2 10.5 19.8 9.3 20.0 8.95 19.85 8.6 L19.3 7.7 18.7 7.15 Q20.35 6.0 20.8 4.1 21.0 3.25 20.25 2.6 L19.2 1.6 19.15 1.55 19.3 1.5 Q20.2 0.25 20.05 -1.2 19.95 -2.1 19.15 -2.6 18.1 -3.2 16.95 -3.0 L17.3 -3.35 Q17.65 -4.65 17.2 -5.8 16.9 -6.65 16.0 -6.75 L14.6 -6.6 Q14.85 -8.25 13.85 -9.6 13.2 -10.45 12.3 -10.3 L10.7 -9.85 Q10.0 -11.1 8.5 -11.55 L7.35 -11.45 5.85 -10.85 5.4 -11.8 Q3.15 -13.25 0.95 -11.35 -0.45 -13.55 -2.75 -12.2 L-3.55 -11.75 Q-4.45 -12.75 -5.7 -12.6 -7.25 -12.4 -7.95 -10.9 -10.55 -11.8 -12.05 -9.35 -14.75 -9.9 -14.95 -7.1 L-14.95 -6.3 -17.55 -5.95 Q-18.4 -4.95 -18.0 -3.6 L-18.0 -3.45 Q-19.3 -3.15 -19.75 -1.9 -20.1 -0.85 -19.65 -0.1 L-18.8 1.4 Q-20.4 1.65 -20.7 3.45 -20.8 4.25 -20.5 5.05 L-20.05 6.0 Q-21.5 7.4 -20.45 9.25 L-19.3 10.55 -17.9 11.4 Q-18.35 12.15 -18.1 13.1 -17.5 15.15 -14.8 15.25" fill="none" stroke="#660000" stroke-linecap="round" stroke-linejoin="round" stroke-width="1.0"/>
    </g>
  </defs>
</svg>
